X:17
T:Soldier Laddie. ET.17
M:C
L:1/8
Q:1/4=120
S:Eliza Tennyson MS, Lincolnshire,1822
R:reel
O:England;Lincolnshire;Somersby
Z:vmp.R.Greig 2011 <http://www.village-music-project.org.uk>
K:G
[V:1]”^Vivace”D|:G>ABB cAB2|{c/}BA “tr”AG/A/ BA “tr”A>B|G>ABB c>AB>A|GE”_x”ED {A/}G>E”_x”ED:|
[V:2]”_drone legato”z|:G,,2G,2G,,2G,2|D,2D,,2D,2D,,2|G,,D,G,D, G,,D,G,2|C,2C2C,2C2:|
[V:1]|:egdg “^dotted in ms””_x”cB/A/ B2|BA “tr”AG/A/ BAAd|egdg {d/}cB/A/ BA|GE”_x”ED {A/}GE”_x”ED:|]
[V:2]|:G,,G,G,,G, A,,G,A,,G,|D,,D,D,,D, D,,D,D,,D,|G,,G,G,,G, G,,G,G,,G,|C,,C,C,,C, C,,C,C,,C,:|]

